X: 43307
T: Woods Of Ballinahinch, The
R: reel
M: 4/4
K: Ddorian
E||F2 FE FDCF|DA, ~A,2 C2 DE|F2 EG FDCF|DGGF DCDE|
F2 AG FDCF|DA, ~A,2 C2 DE|FEFG AddA|cAGE FDDE:|
~F3G AddA|cAGF ECDE|~F3G AddA|cAGc AddA|
~F3G AddA|cAGF ECDE|~F2 AG FDDE|FDEC A,DDE:|

